resources/svg/pdf-o.svg

<svg width="15" height="15" viewBox="0 0 15 15" fill="none" xmlns="http://www.w3.org/2000/svg">
<path d="M2.5 6.5V6H2V6.5H2.5ZM6.5 6.5V6H6V6.5H6.5ZM6.5 10.5H6V11H6.5V10.5ZM13.5 3.5H14V3.29289L13.8536 3.14645L13.5 3.5ZM10.5 0.5L10.8536 0.146447L10.7071 0H10.5V0.5ZM2.5 7H3.5V6H2.5V7ZM3 11V8.5H2V11H3ZM3 8.5V6.5H2V8.5H3ZM3.5 8H2.5V9H3.5V8ZM4 7.5C4 7.77614 3.77614 8 3.5 8V9C4.32843 9 5 8.32843 5 7.5H4ZM3.5 7C3.77614 7 4 7.22386 4 7.5H5C5 6.67157 4.32843 6 3.5 6V7ZM6 6.5V10.5H7V6.5H6ZM6.5 11H7.5V10H6.5V11ZM9 9.5V7.5H8V9.5H9ZM7.5 6H6.5V7H7.5V6ZM9 7.5C9 6.67157 8.32843 6 7.5 6V7C7.77614 7 8 7.22386 8 7.5H9ZM7.5 11C8.32843 11 9 10.3284 9 9.5H8C8 9.77614 7.77614 10 7.5 10V11ZM10 6V11H11V6H10ZM10.5 7H13V6H10.5V7ZM10.5 9H12V8H10.5V9ZM2 5V1.5H1V5H2ZM13 3.5V5H14V3.5H13ZM2.5 1H10.5V0H2.5V1ZM10.1464 0.853553L13.1464 3.85355L13.8536 3.14645L10.8536 0.146447L10.1464 0.853553ZM2 1.5C2 1.22386 2.22386 1 2.5 1V0C1.67157 0 1 0.671573 1 1.5H2ZM1 12V13.5H2V12H1ZM2.5 15H12.5V14H2.5V15ZM14 13.5V12H13V13.5H14ZM12.5 15C13.3284 15 14 14.3284 14 13.5H13C13 13.7761 12.7761 14 12.5 14V15ZM1 13.5C1 14.3284 1.67157 15 2.5 15V14C2.22386 14 2 13.7761 2 13.5H1Z" fill="black"/>
</svg>

<svg viewBox="0 0 15 15" fill="none" xmlns="http://www.w3.org/2000/svg" fill="currentColor"><path d="M2.5 6.5V6H2v.5h.5zm4 0V6H6v.5h.5zm0 4H6v.5h.5v-.5zm7-7h.5v-.207l-.146-.147-.354.354zm-3-3l.354-.354L10.707 0H10.5v.5zM2.5 7h1V6h-1v1zm.5 4V8.5H2V11h1zm0-2.5v-2H2v2h1zm.5-.5h-1v1h1V8zm.5-.5a.5.5 0 01-.5.5v1A1.5 1.5 0 005 7.5H4zM3.5 7a.5.5 0 01.5.5h1A1.5 1.5 0 003.5 6v1zM6 6.5v4h1v-4H6zm.5 4.5h1v-1h-1v1zM9 9.5v-2H8v2h1zM7.5 6h-1v1h1V6zM9 7.5A1.5 1.5 0 007.5 6v1a.5.5 0 01.5.5h1zM7.5 11A1.5 1.5 0 009 9.5H8a.5.5 0 01-.5.5v1zM10 6v5h1V6h-1zm.5 1H13V6h-2.5v1zm0 2H12V8h-1.5v1zM2 5V1.5H1V5h1zm11-1.5V5h1V3.5h-1zM2.5 1h8V0h-8v1zm7.646-.146l3 3 .708-.708-3-3-.708.708zM2 1.5a.5.5 0 01.5-.5V0A1.5 1.5 0 001 1.5h1zM1 12v1.5h1V12H1zm1.5 3h10v-1h-10v1zM14 13.5V12h-1v1.5h1zM12.5 15a1.5 1.5 0 001.5-1.5h-1a.5.5 0 01-.5.5v1zM1 13.5A1.5 1.5 0 002.5 15v-1a.5.5 0 01-.5-.5H1z" fill="currentColor"/></svg>
